web/icons/gps/shuffles.svg

<svg width="256" height="256" viewBox="0 0 256 256" fill="none" xmlns="http://www.w3.org/2000/svg">
<path fill-rule="evenodd" clip-rule="evenodd" d="M50 0C22.386 0 0 22.386 0 50V206C0 233.614 22.386 256 50 256H206C233.614 256 256 233.614 256 206V50C256 22.386 233.614 0 206 0H50ZM208.901 159.793H188.445C162.62 159.793 147.694 144.809 134.096 128C147.694 111.191 162.62 96.2065 188.445 96.2065H208.901V115.283L235 89.1413L208.901 63V82.0761L179.275 82.0761C152.801 82.0761 137.781 97.8226 123.904 115.14C110.026 97.8226 95.0065 82.0762 68.5319 82.0761L29.032 82.0761C25.1363 82.0761 22 85.2393 22 89.1413C22 93.0434 25.1404 96.2066 29.0361 96.2066H59.362C85.1878 96.2066 100.113 111.191 113.711 128C100.113 144.809 85.1878 159.793 59.362 159.793H29.0361C25.1404 159.793 22 162.957 22 166.859C22 170.761 25.1363 173.924 29.032 173.924L68.5319 173.924C95.0065 173.924 110.026 158.177 123.904 140.86C137.781 158.177 152.801 173.924 179.275 173.924L208.901 173.924V193L235 166.859L208.901 140.717V159.793Z" fill="#71AFE5"/>
</svg>

<svg width="256" height="256" fill="none" xmlns="http://www.w3.org/2000/svg"><path fill-rule="evenodd" clip-rule="evenodd" d="M50 0C22.386 0 0 22.386 0 50v156c0 27.614 22.386 50 50 50h156c27.614 0 50-22.386 50-50V50c0-27.614-22.386-50-50-50H50Zm158.901 159.793h-20.456c-25.825 0-40.751-14.984-54.349-31.793 13.598-16.809 28.524-31.793 54.349-31.793h20.456v19.076L235 89.141 208.901 63v19.076h-29.626c-26.474 0-41.494 15.747-55.371 33.064-13.878-17.317-28.897-33.064-55.372-33.064h-39.5c-3.896 0-7.032 3.163-7.032 7.065 0 3.902 3.14 7.066 7.036 7.066h30.326c25.826 0 40.751 14.984 54.349 31.793-13.598 16.809-28.523 31.793-54.349 31.793H29.036c-3.896 0-7.036 3.164-7.036 7.066 0 3.902 3.136 7.065 7.032 7.065h39.5c26.475 0 41.494-15.747 55.372-33.064 13.877 17.317 28.897 33.064 55.371 33.064h29.626V193L235 166.859l-26.099-26.142v19.076Z" fill="#71AFE5"/></svg>
